X:176
T: Muede kehrt ein Wandersmann zurueck
N: D1007
O: Europa, Mitteleuropa, Deutschland, Wuerttemberg, Tiefenbach
N: DVA-Signatur A 37 192
R: Liebes - Lied
M: 4/4
L: 1/8
K: G
BA | G3GGGGc | c2z4
DF | G3AGAed | B2z4
GA | B3dcBAG | E2z3
CB,A, | DEFAe2d2 | B2z4

@@@ Tune index: 2698
